!!!COM:	Bach, Johann Sebastian
!!!CDT:	1685/02/21/-1750/07/28/
!!!OTL@@DE:	O gro&szlig;er Gott von Macht
!!!SCT:	BWV 46/6
!!!PC#:	82
!!!AGN:	chorale
**kern	**kern	**kern	**kern
*ICvox	*ICvox	*ICvox	*ICvox
*Ibass	*Itenor	*Ialto	*Isoprn
*I"Bass	*I"Tenor	*I"Alto	*I"Soprano
*clefF4	*clefGv2	*clefG2	*clefG2
*k[b-]	*k[b-]	*k[b-]	*k[b-]
*g:dor	*g:dor	*g:dor	*g:dor
*M4/4	*M4/4	*M4/4	*M4/4
*met(c)	*met(c)	*met(c)	*met(c)
*MM100	*MM100	*MM100	*MM100
4D	4d	4f#	4a
=1	=1	=1	=1
4G	4d	4g	4b-
4A	4c	4fnX	4cc
4B-	4B-	4f	4dd
4d	4f	4f	8aL
.	.	.	8bJ
=2	=2	=2	=2
2c;	2e-;	2g;	2cc;
4r	4ry	4ry	4r
4c	4c	4e-	4g
=3	=3	=3	=3
4B-	4c	4enX	4g
4A	4c	4f#	4a
4G	4d	4g	4b-
4C	4e-	4a	4cc
=4	=4	=4	=4
2D;	2d;	2f#;	2a;
4r	4ry	4ry	4r
8DL	4A	4d	4f
8CJ	.	.	.
=5	=5	=5	=5
8BB-L	4B-	4d	4f
8B-	.	.	.
8A	4B-	4e	4g
8GJ	.	.	.
4F	4c	4f	4a
4G	4B-	4e-	4b-
=6	=6	=6	=6
2A;	2f;	2e-;	2cc;
4r	4ry	4ry	4r
4B-	4f	4d	4dd
=7	=7	=7	=7
4E-	4e-	8gL	8b-L
.	.	8aJ	8ccJ
8DL	4f	4b-	4dd
8E-J	.	.	.
4F	4f	4b-	4cc
4FF	4c	4a	4cc
=8	=8	=8	=8
2BB-;	2d;	2f;	2b-;
4r	4ry	4ry	4r
8B-L	4B-	4f	4dd
8AJ	.	.	.
=9	=9	=9	=9
4G	4B-	4g	4dd
4F	4B-	4g	4dd
4EnX	4B-	4g	4cc
4F#	[4A	4d	4cc
=10	=10	=10	=10
4G	4A]	4d	4b-
4GG	4G	4e	4b-
2D;	2A;	2f#;	2a;
=11	=11	=11	=11
4r	4ry	4ry	4r
4D	4d	4f#	4a
4GG	4d	4g	4b-
4AA	4c	4f	4a
=12	=12	=12	=12
4BB	4d	4f	4g
2C	4G	4e	4g
.	4A	4d	4f
4BB	4G	4d	4f
=13	=13	=13	=13
2C;	2G;	2c;	2e;
4r	4ry	4ry	4r
4BB-X	4G	[4d	4g
=14	=14	=14	=14
4E-	4G	8dL]	4g
.	.	8cJ	.
4D	4d	4f	8aL
.	.	.	8b-J
8EL	8cL	8gL	4cc
8F#J	8AJ	8aJ	.
4G	8B-L	8dL	4b-
.	8GJ	8gJ	.
=15	=15	=15	=15
4C	4e-	4g	2a
4D	4A	4f#	.
2GG;	2B-;	2d;	2g;
=16	=16	=16	=16
4r	4ry	4ry	4r
4F	4B	4d	4g
4E-	4c	4e-	4g
4D	4f	4f	8aL
.	.	.	8bJ
=17	=17	=17	=17
4C	4e-	4g	4cc
4GG	4d	4g	4b-X
2AA	8c#	8gL	2a
.	4d	8fJ	.
.	.	4enX	.
.	8c#	.	.
=18	=18	=18	=18
1D;	1d;	1f#;	1a;
==	==	==	==
*-	*-	*-	*-
!!!hum2abc: -Q ''
!!!title: @{PC#}. @{OTL@@DE}
!!!YOR1: 371 vierstimmige Choralges&auml;nge von Johann Sebastian Bach, 
!!!YOR2: 4th ed. by Alfred D&ouml;rffel (Leipzig: Breitkopf und H&auml;rtel, 
!!!YOR2: c.1875). 178 pp. Plate "V.A.10".  reprint: J.S. Bach, 371 Four-Part 
!!!YOR4: Chorales (New York: Associated Music Publishers, Inc., c.1940).
!!!SMS: B&H, 4th ed, Alfred D&ouml;rffel, c.1875, plate V.A.10
!!!EED:  Craig Stuart Sapp
!!!EEV:  2009/05/22
